packages/icons/svg/Outline/arrow-ios-right.svg

<svg width="24" height="24" viewBox="0 0 24 24" fill="none" xmlns="http://www.w3.org/2000/svg">
<g id="Icon/Outline/arrow-ios-right">
<path id="Mask" fill-rule="evenodd" clip-rule="evenodd" d="M9.9995 19C9.7735 19 9.5465 18.924 9.3595 18.768C8.9355 18.415 8.8785 17.784 9.2315 17.36L13.7075 11.989L9.3925 6.62701C9.0465 6.19701 9.1145 5.56701 9.5445 5.22101C9.9755 4.87501 10.6045 4.94301 10.9515 5.37301L15.7795 11.373C16.0775 11.744 16.0735 12.274 15.7685 12.64L10.7685 18.64C10.5705 18.877 10.2865 19 9.9995 19Z" fill="#000000"/>
</g>
</svg>

<svg fill="none" height="24" viewBox="0 0 24 24" width="24" xmlns="http://www.w3.org/2000/svg"><path clip-rule="evenodd" d="m9.9995 19.0001c-.226 0-.453-.076-.64-.232-.424-.353-.481-.984-.128-1.408l4.476-5.371-4.315-5.36203c-.346-.43-.278-1.06.152-1.406.431-.346 1.06-.278 1.407.152l4.828 6.00003c.298.371.294.901-.011 1.267l-5 6c-.198.237-.482.36-.769.36" fill="#6b7280" fill-rule="evenodd"/></svg>
